X: 10245
T: Doberman's Wallet, The
R: jig
M: 6/8
K: Dmajor
|:A2 F EDE|FDD DFA|ded B2 A|FEE EFG|
A2 F EDE|FDD DFA|ded B2 A|1 FDD DdB:|2 FDD D2 A||
ded cBA|Bcd e2 d|cAA BAB|cAA ABc|
ded cBA|Bcd efd|A2 F EDE|FDD DFA|
ded cBA|Bcd e2 d|cAA BAB|cAA Aag|
fed cBA|Bcd AGF|GAB Afe|dAF EFG||

